X:1
T:Title
%%score [ ( 1 2 ) ( 3 4 ) ]
L:1/8
Q:1/4=120
M:none
K:Eb
V:1 treble nm="Midi_74"
V:2 treble 
V:3 bass nm="Midi_74"
V:4 bass 
V:1
 E8 | G4 c4 | B8 || B8 | e4 d4 | c4 c4 | B8 || B8 | A4 G4 | c8 || c8 | c4"^Chant: J. Barnby" A4 | %12
 G4 F4 | E8 | %14
V:2
 E8 | G4 c4 | B8 || D8 | E4 F4 | G4 F2 E2 | D8 || B8 | A4 G4 | c8 || G8 | A4 F4 | E4 D4 | E8 | %14
V:3
 E,8 | G,4 C4 | B,8 || B,8 | B,4 B,4 | B,4 =A,4 | B,8 || B,8 | A,4 G,4 | C8 || C6 B,2 | A,4 C4 | %12
 B,4 A,4 | G,8 | %14
V:4
 E,8 | G,4 C4 | B,8 || A,8 | G,4 F,4 | E,4 F,4 | B,,8 || B,8 | A,4 G,4 | C8 || =E,8 | F,4 A,,4 | %12
 B,,4 B,,4 | E,8 | %14

